X: 209
T:Untitled Quadrille. JaW.208
M:6/8
L:1/8
Q:120
S:James Winder Ms, Lancashire, 1835-41
R:Quadrille
O:England
A:Wyresdale,Lancashire
H:1/8
Z:vmp.Chris Partington, Aug 2004
K:G
d|gfe def|g2G G2d|gfe def|g3 b2d|!
gfe def|g2G G2c|B3 A3|"sic"G3:|!
|:c|Bcd dcB|cde edc|Bcd dcB|cBc A2c|!
Bcd dcB|cde edc|B3A3|G3:|]
